; generated by PrusaSlicer 2.5.2+MacOS-arm64 on 2023-06-08 at 08:51:51 UTC


;
;

;
;
; TODO: check the size of the extruder and the y-bar clearance. Optimize & test supports.

; external perimeters extrusion width = 0.42mm
; perimeters extrusion width = 0.44mm
; infill extrusion width = 0.44mm
; solid infill extrusion width = 0.44mm
; top infill extrusion width = 0.44mm
; support material extrusion width = 0.44mm
; first layer extrusion width = 0.56mm

M107
;TYPE:Custom
M104 S0 ; Stops PS/SS from sending temp waits separately
M140 S0
PRINT_START BED=90 HOTEND=270

M117 Priming
    G90                 ; Absolute coordinates.
    M83                 ; Relative extruder mode.
    G92 E0
    ; Move to start of line.
    G1 Z10 F900
    G1 Y3 X3 F18000
    G1 Z0.2 F900
    ; Print the line.
    G91                ; Relative coordinates.
    G1 X100 E25 F1000  ; Extrude filament 25mm (how much it retracted in PRINT_END).
    G1 Y-2 F1000
    G1 X-60 E9 F1000    ; Print second part of the line.
    G1 E-0.5 F3000      ; Retract to avoid stringing.
    G1 X0.5 E0 F1000    ; Wipe back to break string.
    G1 X-5.5 E0 F1000   ; Wipe forward to break string.
G21 ; set units to millimeters
G90 ; use absolute coordinates
M83 ; use relative distances for extrusion
M107
;LAYER_CHANGE
;Z:0.2
;HEIGHT:0.2
;BEFORE_LAYER_CHANGE
;0.2
G92 E0

G1 Z.2 F18000
;AFTER_LAYER_CHANGE
;0.2
G1 E-.5 F3000
G1 X42.156 Y44.821 F18000
G1 E.5 F1800
M204 S1000
;TYPE:Skirt/Brim
;WIDTH:0.56
G1 X43.825 Y43.712 E.08615
G1 X45.74 Y43.337 E.0839
G1 X74.26 Y43.337 E1.22627
G1 X76.225 Y43.733 E.08615
G1 X77.973 Y44.95 E.09161
G1 X79.082 Y46.619 E.08615
G1 X79.458 Y48.534 E.0839
G1 X79.458 Y71.466 E.986
G1 X79.062 Y73.43 E.08615
G1 X77.844 Y75.179 E.09161
G1 X76.175 Y76.288 E.08615
G1 X74.26 Y76.664 E.0839
G1 X45.74 Y76.664 E1.22627
G1 X43.775 Y76.267 E.08615
G1 X42.027 Y75.05 E.09161
G1 X40.918 Y73.381 E.08615
G1 X40.542 Y71.466 E.0839
G1 X40.542 Y48.534 E.986
G1 X40.938 Y46.57 E.08615
G1 X42.121 Y44.87 E.08903
M204 S3000
G1 X42.521 Y45.187 F18000
M204 S1000
G1 F1800
G1 X44.113 Y44.154 E.08159
G1 X45.74 Y43.854 E.0711
G1 X74.26 Y43.854 E1.22627
G1 X76.116 Y44.249 E.08159
G1 X77.608 Y45.315 E.07882
G1 X78.64 Y46.908 E.08159
G1 X78.941 Y48.534 E.0711
G1 X78.941 Y71.466 E.986
G1 X78.545 Y73.322 E.08159
G1 X77.479 Y74.813 E.07882
G1 X75.887 Y75.846 E.08159
G1 X74.26 Y76.146 E.0711
G1 X45.74 Y76.146 E1.22627
G1 X43.884 Y75.751 E.08159
G1 X42.392 Y74.685 E.07882
G1 X41.36 Y73.092 E.08159
G1 X41.059 Y71.466 E.0711
G1 X41.059 Y48.534 E.986
G1 X41.455 Y46.678 E.08159
G1 X42.486 Y45.235 E.07624
M204 S3000
G1 X42.887 Y45.552 F18000
M204 S1000
G1 F1800
G1 X44.397 Y44.6 E.07676
G1 X45.74 Y44.371 E.05855
G1 X74.26 Y44.371 E1.22627
G1 X76.002 Y44.766 E.07676
G1 X77.242 Y45.681 E.06628
G1 X78.194 Y47.192 E.07676
G1 X78.424 Y48.534 E.05855
G1 X78.424 Y71.466 E.986
G1 X78.028 Y73.207 E.07676
G1 X77.113 Y74.448 E.06628
G1 X75.603 Y75.4 E.07676
G1 X74.26 Y75.629 E.05855
G1 X45.74 Y75.629 E1.22627
G1 X43.998 Y75.234 E.07676
G1 X42.758 Y74.319 E.06628
G1 X41.806 Y72.808 E.07676
G1 X41.577 Y71.466 E.05855
G1 X41.577 Y48.534 E.986
G1 X41.972 Y46.793 E.07676
G1 X42.851 Y45.601 E.0637
M204 S3000
G1 X43.253 Y45.918 F18000
M204 S1000
G1 F1800
G1 X44.676 Y45.053 E.07161
G1 X45.74 Y44.888 E.04629
G1 X74.26 Y44.888 E1.22627
G1 X75.879 Y45.282 E.07161
G1 X76.876 Y46.047 E.05405
G1 X77.742 Y47.47 E.07161
G1 X77.906 Y48.534 E.04629
G1 X77.906 Y71.466 E.986
G1 X77.512 Y73.084 E.07161
G1 X76.747 Y74.082 E.05405
G1 X75.324 Y74.947 E.07161
G1 X74.26 Y75.112 E.04629
G1 X45.74 Y75.112 E1.22627
G1 X44.121 Y74.718 E.07161
G1 X43.124 Y73.953 E.05405
G1 X42.258 Y72.53 E.07161
G1 X42.094 Y71.466 E.04629
G1 X42.094 Y48.534 E.986
G1 X42.488 Y46.916 E.07161
G1 X43.216 Y45.965 E.05147
M204 S3000
G1 E-.5 F3000
G1 X74.389 Y48.534 F18000
G1 E.5 F1800
M204 S1000
;TYPE:Support material
G1 X74.389 Y71.466 E.986
G1 X74.26 Y71.595 E.00784
G1 X45.74 Y71.595 E1.22627
G1 X45.611 Y71.466 E.00784
G1 X45.611 Y48.534 E.986
G1 X45.74 Y48.405 E.00784
G1 X74.26 Y48.405 E1.22627
G1 X74.335 Y48.479 E.0045
M204 S3000
G1 E-.5 F3000
G1 X52.036 Y54.83 F18000
G1 E.5 F1800
M204 S1000
G1 X52.036 Y65.17 E.44455
G1 X67.964 Y65.17 E.68482
G1 X67.964 Y54.83 E.44455
G1 X52.114 Y54.83 E.68149
M204 S3000
G1 E-.5 F3000
G1 X51.571 Y65.171 F18000
G1 E.5 F1800
M204 S1000
G1 X46.076 Y65.171 E.23624
G1 X46.076 Y64.596 E.0247
G1 X51.571 Y64.596 E.23624
G1 X51.571 Y64.022 E.0247
G1 X46.076 Y64.022 E.23624
G1 X46.076 Y63.447 E.0247
G1 X51.571 Y63.447 E.23624
G1 X51.571 Y62.873 E.0247
G1 X46.076 Y62.873 E.23624
G1 X46.076 Y62.298 E.0247
G1 X51.571 Y62.298 E.23624
G1 X51.571 Y61.724 E.0247
G1 X46.076 Y61.724 E.23624
G1 X46.076 Y61.149 E.0247
G1 X51.571 Y61.149 E.23624
G1 X51.571 Y60.575 E.0247
G1 X46.076 Y60.575 E.23624
G1 X46.076 Y60 E.0247
G1 X51.571 Y60 E.23624
G1 X51.571 Y59.425 E.0247
G1 X46.076 Y59.425 E.23624
G1 X46.076 Y58.851 E.0247
G1 X51.571 Y58.851 E.23624
G1 X51.571 Y58.276 E.0247
G1 X46.076 Y58.276 E.23624
G1 X46.076 Y57.702 E.0247
G1 X51.571 Y57.702 E.23624
G1 X51.571 Y57.127 E.0247
G1 X46.076 Y57.127 E.23624
G1 X46.076 Y56.553 E.0247
G1 X51.571 Y56.553 E.23624
G1 X51.571 Y55.978 E.0247
G1 X46.076 Y55.978 E.23624
G1 X46.076 Y55.404 E.0247
G1 X51.571 Y55.404 E.23624
G1 X51.571 Y54.829 E.0247
G1 X46.076 Y54.829 E.23624
G1 X46.076 Y54.255 E.0247
G1 X73.924 Y54.255 E1.19733
G1 X73.924 Y53.68 E.0247
G1 X46.076 Y53.68 E1.19733
G1 X46.076 Y53.106 E.0247
G1 X73.924 Y53.106 E1.19733
G1 X73.924 Y52.531 E.0247
G1 X46.076 Y52.531 E1.19733
G1 X46.076 Y51.957 E.0247
G1 X73.924 Y51.957 E1.19733
G1 X73.924 Y51.382 E.0247
G1 X46.076 Y51.382 E1.19733
G1 X46.076 Y50.807 E.0247
G1 X73.924 Y50.807 E1.19733
G1 X73.924 Y50.233 E.0247
G1 X46.076 Y50.233 E1.19733
G1 X46.076 Y49.658 E.0247
G1 X73.924 Y49.658 E1.19733
G1 X73.924 Y49.084 E.0247
G1 X46.076 Y49.084 E1.19733
M204 S3000
G1 E-.5 F3000
G1 X73.924 Y70.916 F18000
G1 E.5 F1800
M204 S1000
G1 X46.076 Y70.916 E1.19733
G1 X46.076 Y70.342 E.0247
G1 X73.924 Y70.342 E1.19733
G1 X73.924 Y69.767 E.0247
G1 X46.076 Y69.767 E1.19733
G1 X46.076 Y69.193 E.0247
G1 X73.924 Y69.193 E1.19733
G1 X73.924 Y68.618 E.0247
G1 X46.076 Y68.618 E1.19733
G1 X46.076 Y68.043 E.0247
G1 X73.924 Y68.043 E1.19733
G1 X73.924 Y67.469 E.0247
G1 X46.076 Y67.469 E1.19733
G1 X46.076 Y66.894 E.0247
G1 X73.924 Y66.894 E1.19733
G1 X73.924 Y66.32 E.0247
G1 X46.076 Y66.32 E1.19733
G1 X46.076 Y65.745 E.0247
G1 X73.924 Y65.745 E1.19733
G1 X73.924 Y65.171 E.0247
G1 X68.429 Y65.171 E.23625
G1 X68.429 Y64.596 E.0247
G1 X73.924 Y64.596 E.23625
G1 X73.924 Y64.022 E.0247
G1 X68.429 Y64.022 E.23625
G1 X68.429 Y63.447 E.0247
G1 X73.924 Y63.447 E.23625
G1 X73.924 Y62.873 E.0247
G1 X68.429 Y62.873 E.23625
G1 X68.429 Y62.298 E.0247
G1 X73.924 Y62.298 E.23625
G1 X73.924 Y61.724 E.0247
G1 X68.429 Y61.724 E.23625
G1 X68.429 Y61.149 E.0247
G1 X73.924 Y61.149 E.23625
G1 X73.924 Y60.575 E.0247
G1 X68.429 Y60.575 E.23625
G1 X68.429 Y60 E.0247
G1 X73.924 Y60 E.23625
G1 X73.924 Y59.425 E.0247
G1 X68.429 Y59.425 E.23625
G1 X68.429 Y58.851 E.0247
G1 X73.924 Y58.851 E.23625
G1 X73.924 Y58.276 E.0247
G1 X68.429 Y58.276 E.23625
G1 X68.429 Y57.702 E.0247
G1 X73.924 Y57.702 E.23625
G1 X73.924 Y57.127 E.0247
G1 X68.429 Y57.127 E.23625
G1 X68.429 Y56.553 E.0247
G1 X73.924 Y56.553 E.23625
G1 X73.924 Y55.978 E.0247
G1 X68.429 Y55.978 E.23625
G1 X68.429 Y55.404 E.0247
G1 X73.924 Y55.404 E.23625
G1 X73.924 Y54.829 E.0247
G1 X68.429 Y54.829 E.23625
M204 S3000
;LAYER_CHANGE
;Z:0.5
;HEIGHT:0.3
;BEFORE_LAYER_CHANGE
;0.5
G92 E0

G1 Z.5 F18000
;AFTER_LAYER_CHANGE
;0.5
M104 S260 ; set temperature
M140 S90 ; set bed temperature
G1 E-.5 F3000
G1 X73.971 Y49.288 F18000
G1 E.5 F1800
;TYPE:Support material interface
;WIDTH:0.44
G1 F3207
G1 X73.971 Y48.823 E.02177
G1 X73.733 Y48.823 E.01115
G1 X73.733 Y71.177 E1.04724
G1 X73.136 Y71.177 E.02797
G1 X73.136 Y48.823 E1.04724
G1 X72.539 Y48.823 E.02797
G1 X72.539 Y71.177 E1.04724
G1 X71.942 Y71.177 E.02797
G1 X71.942 Y48.823 E1.04724
G1 X71.345 Y48.823 E.02797
G1 X71.345 Y71.177 E1.04724
G1 X70.747 Y71.177 E.02797
G1 X70.747 Y48.823 E1.04724
G1 X70.15 Y48.823 E.02797
G1 X70.15 Y71.177 E1.04724
G1 X69.553 Y71.177 E.02797
G1 X69.553 Y48.823 E1.04724
G1 X68.956 Y48.823 E.02797
G1 X68.956 Y71.177 E1.04724
G1 X68.359 Y71.177 E.02797
G1 X68.359 Y65.588 E.26181
G1 X68.382 Y65.588 E.00109
G1 X68.382 Y54.412 E.52362
G1 X68.359 Y54.412 E.00109
G1 X68.359 Y48.823 E.26181
G1 X67.762 Y48.823 E.02797
G1 X67.762 Y54.412 E.26181
G1 X67.165 Y54.412 E.02797
G1 X67.165 Y48.823 E.26181
G1 X66.568 Y48.823 E.02797
G1 X66.568 Y54.412 E.26181
G1 X65.971 Y54.412 E.02797
G1 X65.971 Y48.823 E.26181
G1 X65.374 Y48.823 E.02797
G1 X65.374 Y54.412 E.26181
G1 X64.777 Y54.412 E.02797
G1 X64.777 Y48.823 E.26181
G1 X64.18 Y48.823 E.02797
G1 X64.18 Y54.412 E.26181
G1 X63.582 Y54.412 E.02797
G1 X63.582 Y48.823 E.26181
G1 X62.985 Y48.823 E.02797
G1 X62.985 Y54.412 E.26181
G1 X62.388 Y54.412 E.02797
G1 X62.388 Y48.823 E.26181
G1 X61.791 Y48.823 E.02797
G1 X61.791 Y54.412 E.26181
G1 X61.194 Y54.412 E.02797
G1 X61.194 Y48.823 E.26181
G1 X60.597 Y48.823 E.02797
G1 X60.597 Y54.412 E.26181
G1 X60 Y54.412 E.02797
G1 X60 Y48.823 E.26181
G1 X59.403 Y48.823 E.02797
G1 X59.403 Y54.412 E.26181
G1 X58.806 Y54.412 E.02797
G1 X58.806 Y48.823 E.26181
G1 X58.209 Y48.823 E.02797
G1 X58.209 Y54.412 E.26181
G1 X57.612 Y54.412 E.02797
G1 X57.612 Y48.823 E.26181
G1 X57.015 Y48.823 E.02797
G1 X57.015 Y54.412 E.26181
G1 X56.418 Y54.412 E.02797
G1 X56.418 Y48.823 E.26181
G1 X55.82 Y48.823 E.02797
G1 X55.82 Y54.412 E.26181
G1 X55.223 Y54.412 E.02797
G1 X55.223 Y48.823 E.26181
G1 X54.626 Y48.823 E.02797
G1 X54.626 Y54.412 E.26181
G1 X54.029 Y54.412 E.02797
G1 X54.029 Y48.823 E.26181
G1 X53.432 Y48.823 E.02797
G1 X53.432 Y54.412 E.26181
G1 X52.835 Y54.412 E.02797
G1 X52.835 Y48.823 E.26181
G1 X52.238 Y48.823 E.02797
G1 X52.238 Y54.412 E.26181
G1 X51.839 Y54.412 E.01867
G1 E-.5 F3000
G1 X46.029 Y70.712 F18000
G1 E.5 F1800
G1 F3207
G1 X46.029 Y71.177 E.02177
G1 X46.267 Y71.177 E.01115
G1 X46.267 Y48.823 E1.04724
G1 X46.864 Y48.823 E.02797
G1 X46.864 Y71.177 E1.04724
G1 X47.461 Y71.177 E.02797
G1 X47.461 Y48.823 E1.04724
G1 X48.058 Y48.823 E.02797
G1 X48.058 Y71.177 E1.04724
G1 X48.655 Y71.177 E.02797
G1 X48.656 Y48.823 E1.04724
G1 X49.253 Y48.823 E.02797
G1 X49.253 Y71.177 E1.04724
G1 X49.85 Y71.177 E.02797
G1 X49.85 Y48.823 E1.04724
G1 X50.447 Y48.823 E.02797
G1 X50.447 Y71.177 E1.04724
G1 X51.044 Y71.177 E.02797
G1 X51.044 Y48.823 E1.04724
G1 X51.641 Y48.823 E.02797
G1 X51.641 Y54.412 E.26181
G1 X51.618 Y54.412 E.00109
G1 X51.618 Y65.588 E.52362
G1 X51.641 Y65.588 E.00109
G1 X51.641 Y71.177 E.26181
G1 X52.238 Y71.177 E.02797
G1 X52.238 Y65.588 E.26181
G1 X52.835 Y65.588 E.02797
G1 X52.835 Y71.177 E.26181
G1 X53.432 Y71.177 E.02797
G1 X53.432 Y65.588 E.26181
G1 X54.029 Y65.588 E.02797
G1 X54.029 Y71.177 E.26181
G1 X54.626 Y71.177 E.02797
G1 X54.626 Y65.588 E.26181
G1 X55.223 Y65.588 E.02797
G1 X55.223 Y71.177 E.26181
G1 X55.82 Y71.177 E.02797
G1 X55.82 Y65.588 E.26181
G1 X56.418 Y65.588 E.02797
G1 X56.418 Y71.177 E.26181
G1 X57.015 Y71.177 E.02797
G1 X57.015 Y65.588 E.26181
G1 X57.612 Y65.588 E.02797
G1 X57.612 Y71.177 E.26181
G1 X58.209 Y71.177 E.02797
G1 X58.209 Y65.588 E.26181
G1 X58.806 Y65.588 E.02797
G1 X58.806 Y71.177 E.26181
G1 X59.403 Y71.177 E.02797
G1 X59.403 Y65.588 E.26181
G1 X60 Y65.588 E.02797
G1 X60 Y71.177 E.26181
G1 X60.597 Y71.177 E.02797
G1 X60.597 Y65.588 E.26181
G1 X61.194 Y65.588 E.02797
G1 X61.194 Y71.177 E.26181
G1 X61.791 Y71.177 E.02797
G1 X61.791 Y65.588 E.26181
G1 X62.388 Y65.588 E.02797
G1 X62.388 Y71.177 E.26181
G1 X62.985 Y71.177 E.02797
G1 X62.985 Y65.588 E.26181
G1 X63.582 Y65.588 E.02797
G1 X63.582 Y71.177 E.26181
G1 X64.18 Y71.177 E.02797
G1 X64.18 Y65.588 E.26181
G1 X64.777 Y65.588 E.02797
G1 X64.777 Y71.177 E.26181
G1 X65.374 Y71.177 E.02797
G1 X65.374 Y65.588 E.26181
G1 X65.971 Y65.588 E.02797
G1 X65.971 Y71.177 E.26181
G1 X66.568 Y71.177 E.02797
G1 X66.568 Y65.588 E.26181
G1 X67.165 Y65.588 E.02797
G1 X67.165 Y71.177 E.26181
G1 X67.762 Y71.177 E.02797
G1 X67.762 Y65.588 E.26181
G1 X68.161 Y65.588 E.01867
;LAYER_CHANGE
;Z:0.85
;HEIGHT:0.35
;BEFORE_LAYER_CHANGE
;0.85
G92 E0

G1 Z.85 F18000
;AFTER_LAYER_CHANGE
;0.85
G1 E-.5 F3000
G1 X70.571 Y67.94 F18000
G1 E.5 F1800
M204 S2000
;TYPE:External perimeter
;WIDTH:0.562512
;HEIGHT:0.2
G1 F637
G1 X70.471 Y67.961 E.00437
;WIDTH:0.52146
G1 X49.529 Y67.961 E.83333
;WIDTH:0.562513
G1 X49.429 Y67.94 E.00437
;WIDTH:0.603565
G1 X49.33 Y67.92 E.00472
G1 X49.31 Y67.821 E.00472
;WIDTH:0.562513
G1 X49.289 Y67.721 E.00437
;WIDTH:0.52146
G1 X49.289 Y52.279 E.61449
;WIDTH:0.562513
G1 X49.31 Y52.179 E.00437
;WIDTH:0.603565
G1 X49.33 Y52.08 E.00472
G1 X49.429 Y52.06 E.00472
;WIDTH:0.562513
G1 X49.529 Y52.039 E.00437
;WIDTH:0.52146
G1 X70.471 Y52.039 E.83333
G1 X70.711 Y52.279 E.01346
G1 X70.711 Y67.721 E.61449
;WIDTH:0.562512
G1 X70.69 Y67.821 E.00437
;WIDTH:0.603564
G1 X70.67 Y67.92 E.00472
G1 X70.629 Y67.928 E.00192
M204 S3000
G1 X70.558 Y68.041 F18000
G1 X71.148 Y68.398
M204 S2000
G1 F637
G1 X70.81 Y68.419 E.0158
;WIDTH:0.562512
G1 X70.471 Y68.439 E.01465
;WIDTH:0.52146
G1 X49.529 Y68.439 E.83333
;WIDTH:0.562513
G1 X49.19 Y68.419 E.01465
;WIDTH:0.603565
G1 X48.852 Y68.398 E.0158
G1 X48.831 Y68.06 E.0158
;WIDTH:0.562513
G1 X48.811 Y67.721 E.01465
;WIDTH:0.52146
G1 X48.811 Y52.279 E.61449
;WIDTH:0.562513
G1 X48.831 Y51.94 E.01465
;WIDTH:0.603565
G1 X48.852 Y51.602 E.0158
G1 X49.19 Y51.581 E.0158
;WIDTH:0.562513
G1 X49.529 Y51.561 E.01465
;WIDTH:0.52146
G1 X70.471 Y51.561 E.83333
G1 X70.728 Y51.544 E.01022
;WIDTH:0.48764
G1 X70.984 Y51.527 E.00949
;WIDTH:0.45382
G1 X71.24 Y51.51 E.00877
G1 X71.223 Y51.766 E.00877
;WIDTH:0.48764
G1 X71.206 Y52.022 E.00949
;WIDTH:0.52146
G1 X71.189 Y52.279 E.01022
G1 X71.189 Y67.721 E.61449
;WIDTH:0.525085
G1 X71.187 Y67.805 E.00334
;WIDTH:0.564325
G1 X71.168 Y68.101 E.01289
;WIDTH:0.603564
G1 X71.152 Y68.338 E.01107
M204 S3000
G1 E-.5 F3000
G1 X70.891 Y51.842 F18000
G1 E.5 F1800
M204 S2000
;TYPE:Perimeter
;WIDTH:0.41005
G1 F637
G1 X70.822 Y51.882 E.00243
G1 X70.891 Y51.922 E.00243
G1 X70.914 Y51.882 E.0014
M204 S3000
;LAYER_CHANGE
;Z:1.05
;HEIGHT:0.2
;BEFORE_LAYER_CHANGE
;1.05
G92 E0

G1 Z1.05 F18000
;AFTER_LAYER_CHANGE
;1.05
G1 X70.711 Y52.279
M204 S2000
;TYPE:External perimeter
;WIDTH:0.52146
G1 F628
G1 X70.711 Y67.721 E.61449
;WIDTH:0.562512
G1 X70.69 Y67.821 E.00437
;WIDTH:0.603564
G1 X70.67 Y67.92 E.00472
G1 X70.571 Y67.94 E.00472
;WIDTH:0.562512
G1 X70.471 Y67.961 E.00437
;WIDTH:0.52146
G1 X49.529 Y67.961 E.83333
;WIDTH:0.562513
G1 X49.429 Y67.94 E.00437
;WIDTH:0.603565
G1 X49.33 Y67.92 E.00472
G1 X49.31 Y67.821 E.00472
;WIDTH:0.562513
G1 X49.289 Y67.721 E.00437
;WIDTH:0.52146
G1 X49.289 Y52.279 E.61449
;WIDTH:0.562513
G1 X49.31 Y52.179 E.00437
;WIDTH:0.603565
G1 X49.33 Y52.08 E.00472
G1 X49.429 Y52.06 E.00472
;WIDTH:0.562513
G1 X49.529 Y52.039 E.00437
;WIDTH:0.52146
G1 X70.471 Y52.039 E.83333
G1 X70.668 Y52.236 E.01108
M204 S3000
G1 X71.111 Y52.28 F18000
G1 X71.24 Y51.51
M204 S2000
;WIDTH:0.45382
G1 F628
G1 X71.223 Y51.766 E.00877
;WIDTH:0.48764
G1 X71.206 Y52.022 E.00949
;WIDTH:0.52146
G1 X71.189 Y52.279 E.01022
G1 X71.189 Y67.721 E.61449
;WIDTH:0.525085
G1 X71.187 Y67.805 E.00334
;WIDTH:0.564325
G1 X71.168 Y68.101 E.01289
;WIDTH:0.603564
G1 X71.148 Y68.398 E.01386
G1 X70.81 Y68.419 E.0158
;WIDTH:0.562512
G1 X70.471 Y68.439 E.01465
;WIDTH:0.52146
G1 X49.529 Y68.439 E.83333
;WIDTH:0.562513
G1 X49.19 Y68.419 E.01465
;WIDTH:0.603565
G1 X48.852 Y68.398 E.0158
G1 X48.831 Y68.06 E.0158
;WIDTH:0.562513
G1 X48.811 Y67.721 E.01465
;WIDTH:0.52146
G1 X48.811 Y52.279 E.61449
;WIDTH:0.562513
G1 X48.831 Y51.94 E.01465
;WIDTH:0.603565
G1 X48.852 Y51.602 E.0158
G1 X49.19 Y51.581 E.0158
;WIDTH:0.562513
G1 X49.529 Y51.561 E.01465
;WIDTH:0.52146
G1 X70.471 Y51.561 E.83333
G1 X70.728 Y51.544 E.01022
;WIDTH:0.48764
G1 X70.984 Y51.527 E.00949
;WIDTH:0.45382
G1 X71.18 Y51.514 E.00672
M204 S3000
G1 X70.891 Y51.842 F18000
M204 S2000
;TYPE:Perimeter
;WIDTH:0.41005
G1 F628
G1 X70.822 Y51.882 E.00243
